X:944031
T:The Sound of Silence 3Voice 
H: 
B: https://musescore.com/georgewu/ptxsoundofsilence, https://musescore.com/abchords321/scores/5449091
C:Simon and Garfunkel (Pentatonix / disturbed)
O:Transcribed by Kevin Fraser
Z:Kevin Fraser
Q:1/4=90
%K:AMix
K:A
%K:AMix sound=A_b
%K:{g}B{d}BMix score=_{g}B{e}A %concert Pitch
M:2/4
L:1/8
U: R = ///
U: r = //
I:MIDI=program 110
% I:linebreak $
%%MIDI gracedivider 100
V:M gstem=up stem=down name="Melody" sname=Melody transpose=2
V:H gstem=up stem=down name="Chord" sname=Ch transpose=2
V:C gstem=up stem=down name="Bass" sname=Bass transpose=2
V:Pb gstem=up stem=down name="Piano Bass" transpose=2 clef=bass
V:BG gstem=up stem=down name="Bass Guitar" sname="BassG" octave=-1 clef=bass transpose=2
V:P gstem=up stem=down name="Piano" sname="Piano" octave=-1 clef=treble transpose=2
V:Strings gstem=up stem=down name="Strings" sname="Strings" octave=1 clef=treble transpose=2
V:Timpani gstem=up stem=down name="Timpani" sname="Timpani" octave=-1 clef=treble transpose=2
V:Guitar gstem=up stem=down name="Guitar" sname="Guitar" octave=0 clef=treble transpose=2
% %landscape off
%%landscape 
%%score {M H C (( P Pb ) Guitar BG Strings Timpani )}
[V:M]
%%MIDI program 110
%%MIDI channel 1
[V:H]
%%MIDI program 110
%%MIDI channel 1
[V:C]
%%MIDI program 110
%%MIDI channel 1
[V:P]
%%MIDI voice P instrument=1     %Piano
%%MIDI program 1
%%MIDI channel 2
[V:Guitar]
%%MIDI channel 4
%%MIDI program 28
%%MIDI vol 100
[V:BG]
%%MIDI channel 5
%%MIDI program 20
[V:Strings]
%%MIDI channel 6
%%MIDI program 49 %strings
[V:Timpani]
%%MIDI channel 8
% %MIDI program 48 %Timpani
%%MIDI program 117 %Taiko DruM
% %MIDI program 119 %Melodic Tom
%%MIDI vol 100
[V:P] !f!F,-CGC | [AF,-]FCG | C-F,- A2- | [F,CA]4 | F,CGC | AFCG | C-F,- A2- | [F,CA]4 |
[V:P] E,-B,FB, | GEB,F | [E,B-] [EB]3- | [EB]4 | F,CGC | AFCG | C-F,- A2- | [F,CA]4 |
[V:P] D,A,D [A,EA]- | [A,EA]3- [A,EAA,,]| A,,4 | [A,,-A,CE][A,CE][A,CE][A,CE] |D,A,D [A,EA]- | [A,EA]3- [A,EAA,,] | A,,4 | 
[V:P] D,A,DA, | FA,DA, | D,A,DA, | FA,DA, | A,EAE | CEAE | F,CFG | A3A,, | A,,4 | E,,B,,E,F | G3G | 
[V:P] [F,F]C BC | AC GC |]
     [V:M]!p!                         z4                              | z4                                         | z4                           | z4                          | z4                      | z4             | z z       {g}A{d}A |  {g}c{d}c {g}e{G}e | {gde}d4- | {gde}d4- | dG {g}G{d}G | {g}B{d}B {g}d{e}d | {gcd}c4- | {gcd}c4- | cA {g}A{d}A | {g}c{d}c {g}e{G}e | $
     [V:H]!p!                         z4                              | z4                                         | z4                           | z4                          | z4                      | z4             | z z       {g}A{d}A |  {g}c{d}c {g}e{G}e | {gde}d4- | {gde}d4- | dG {g}G{d}G | {g}B{d}B {g}d{e}d | {gcd}c4- | {gcd}c4- | cA {g}A{d}A | {g}c{d}c {g}e{G}e | $
     [V:C]   !p!                      z4                              | z4                                         | z4                           | z4                          | z4                      | z4             | z z       {g}A{d}A |  {g}c{d}c {g}e{G}e | {gde}d4- | {gde}d4- | dG {g}G{d}G | {g}B{d}B {g}d{e}d | {gcd}c4- | {gcd}c4- | cA {g}A{d}A | {g}c{d}c {g}e{G}e | $
w:  | | | | |       Hel-lo   dark-ness my old | friend   | -I've come to  talk with you  a  | gain      | - be cause a   vision softly | cre-ep-ing        |   -  left its seeds while I was |  sle-ep-ing |  $
     [V:H]                         {g}d2{c}d{e}c-                  | c4-                                        | {g}c4                        | {g}c4                       | {g}d2{c}d{e}c-          | c4             | {AGAG}A2 {gef}e2  |
     [V:M]                         {g}f2{A}f{g}e-                  | e4-                                        | e2                  {g}A{d}A | {g}c{d}c           {g}e{G}e | {g}f2{A}f{g}e-          | e4-            | e2       {g}A{d}A |
     [V:C]                         {g}A4-                          | A4                                         | {g}A4-                       | A4                          | {g}A4-                  | A4             | {gcd}c4           |
     [V:M]                          {g}f{g}f- f2- | f2 {g} fg | {g}a{g}a-               a2 |{f}gf- f{gef}e- | e4-          |       e2 fe-   | {gcd}c4- |c4-                    | cA      {g}A{d}A |  e4-| e2- eG | Af-      f2- | f4-      |]
w:    |                                   - and the                    |        vision   - - -       that was                      | planted   in   my brain                         | - - still     re-                         | mains                                                | -     within the                    |        sound   of | silence     | $
     [V:H]                          {gde}d4 | {g}d2 G2        | {gAGAG}A4     | A4                            | {AGAG}A4           | {gcd}c4  | {gef}e4        |    e2 f2-   |         f4       |  {g}c4 | c4  | Ac       GB |Ac Bd |]
     [V:C]                          {AGAG}A4- |A2 d2         | {gfg}f4-|                {gde}d4            | {gcd}c4           |  {AGAG}A4 | {AGAG}A4       |    G2 A2-   |         A4       |  {g}A4 | A4  | c2       B2 |c2 d2 |]
[V:Timpani]  !f!F,z3| z4| z4| z4| z4| z4| z4| z4|
[V:Timpani]  z4| z4| z4| z4| z4| z4| z4| z4|
[V:Timpani]  z4| z3A,| A,4| z4| z4| z3A,| A,4| z4|
[V:Timpani]  z4| z4| z4| z4| z4| z4| z4| z4|
[V:Timpani]  z4| z4| z4| z4|]
[V:Guitar]  z4| z4| z4| z4| z4| z4| z4| z4|
[V:Guitar]  z4| z4| z4| z4| z4| z4| z4| z4|
[V:Guitar]  z4| z4| z4| z4| z4| z4| z4| z4|
[V:Guitar]  z4| z4| z4| z4| z4| z4| z4| z4|
[V:Guitar]  z4| z4| z4| z4|]
[V:Strings] z4| z4| z4| z4| z4| z4| z4| z4|
[V:Strings] z4| z4| z4| z4| z4| z4| z4| z4|
[V:Strings] z4| z4| z4| z4| z4| z4| z4| z4|
[V:Strings] z4| z4| z4| z4| z4| z4| z4| z4|
[V:Strings] z4| z4| z4| z4|]
[V:BG] z4| z4| z4| z4| z4| z4| z4| z4|
[V:BG] z4| z4| z4| z4| z4| z4| z4| z4|
[V:BG] z4| z4| z4| z4| z4| z4| z4| z4|
[V:BG] z4| z4| z4| z4| z4| z4| z4| z4|
[V:BG] z4| z4| z4| z4|]
T:The Sound of Silence P2
[V:M][M:4/4] [| A2                  {g}A{d}A {g}c{d}c {g}e{G}e | {gde}d8-                                                       | d2                   {g}G{d}G {g}B{d}B {g}d{e}d | {gcd}c8-                                  | cA                        {g}A{d}A {g}c{d}c {g}e{G}e | $ 
[V:H][M:4/4] [| f2                  {g}A{d}A {g}c{d}c {g}e{G}e | f8-                                                            | d2                   {g}G{d}G {g}B{d}B {g}d{e}d | {gef}e4                   {gcd}c4-        | {gef}e4                   {g}c{d}c {g}e{G}e          |$ 
[V:C][M:4/4] [| {gfg}f4             {AGAG}A4                   | {g}A4{g}B4                                                     | A8                                              | A4                        G4              | A4                        G2 {g}A2                   | $ 
[V:M]                {g}f2{A}f{g}e-e4-                   | e2              {g}A{d}A {g}c{d}c {g}e{G}e |  {g}f2{A}f{g}e-e4-                           |  [M:2/4]e2           {g}A{d}A                   |[M:4/4]                           {g}f2 {g}ff- f2 {g}fg        | $
[V:H]                d2{g}dc-           c4               | c2              e2 {g}c{d}c c2             |  d2                      {g}dc- c4           |  [M:2/4]ed           c2                         |[M:4/4]                           {AGAG}A4- d2{g}de            | $
[V:C]                {g}A8                               | {g}A8                                      |  d2                      A6                  |  [M:2/4]{AGAG}A4                                |[M:4/4]                           {gde}d4- {AGAG}A4            | $
[V:M]                 {ag}a{g}a-           a2 {f}gf- f{gef}e-         | e4-                       eA {g}fe        | {gcd}c8-                                             | [M:2/4]cA          {g}A{d}A         | [M:4/4]{gef}e6- eG                         |  {g}A                    f7                  |] $
[V:H]                 f2{g}f{g}f           {g}e{g}d- d{gcd}c-         | c6-                       {g}c2           | {g}f3G{g}A2{g}f2                                     | [M:2/4]{AGAG}A4                     | [M:4/4]{g}c8                               |  {g}Ac                   {g}Bd {g}Ac {g}GB   |] $
[V:C]                 {g}A8                                           | {g}A4                     {g}A4           | {g}A3B{g}A2{d}c2                                     | [M:2/4]{gef}e4                      | [M:4/4]{g}A8                               |  {g}c2                   {g}d2 {g}c2 {g}B2   |] $
[V:P][M:4/4] [| !ff!C-F,- A2-  [F,CA]4 |  E,-B,FB,  GEB,F| 
[V:P]  [E,B-] [EB]3-  [EB]4 | F,CGC  AFCG | C-F,- A2-  [F,CA]4 |
[V:P] D,A,D [A,EA]-  [A,EA]3- [A,EAA,,]| A,,4  [A,,-A,CE][A,CE][A,CE][A,CE] |D,A,D [A,EA]-  [A,EA]3- [A,EAA,,] | [M:2/4]A,,4 | 
[V:P] [M:4/4]D,A,DA,  FA,DA, | D,A,DA,  FA,DA, | A,EAE  CEAE | F,CFG  A3A, | [M:2/4]A,4 |[M:4/4] EBef  g3g | 
[V:P] [Ff]c bc  ac gc |]
%[V:BG][M:4/4] [| !mf!C-F,- A2-  [F,CA]4 |  E,-B,FB,  GEB,F| 
%[V:BG]  [E,B-] [EB]3-  [EB]4 | F,CGC  AFCG | C-F,- A2-  [F,CA]4 |
%[V:BG] D,A,D [A,EA]-  [A,EA]3- [A,EAA,,]| A,,4  [A,,-A,CE][A,CE][A,CE][A,CE] |D,A,D [A,EA]-  [A,EA]3- [A,EAA,,] | [M:2/4]A,,4 | 
%[V:BG] [M:4/4]D,A,DA,  FA,DA, | D,A,DA,  FA,DA, | A,EAE  CEAE | F,CFG  A3A, | [M:2/4]A,4 |[M:4/4] EBef  g3g | 
%[V:BG] [Ff]c bc  ac gc |]
%[V:Guitar][M:4/4][|!pp! "A" [F,CA]cac [F,CA]cac |
%[V:Guitar][A,FD]afa [A,FD]afa |
%[V:Guitar][DGB]dbd [DGB]dbd |
%[V:Guitar][Ace]ece [Gce]geg |
%[V:Guitar][CA]ece [CA]ece |
%[V:Guitar]D,A,D [A,EA]-  A,EC [A,EAA,,]| A,,4  [A,,-A,CE][A,CE][A,CE][A,CE] |D,A,D [A,EA]-  A,EC [A,EAA,,] | [M:2/4]A,,-[A,,-E,][A,,-C,][A,,-E,] |
%[V:Guitar][M:4/4][DFA]-[D-F-A-a][D-F-A-f][DFAa] [DFA]-[D-F-A-a][D-F-A-f][DFAa] |
%[V:Guitar][DFA]-[D-F-A-a][D-F-A-f][DFAa] [DFA]-[D-F-A-a][D-F-A-f][DFAa] |
%[V:Guitar][AEC]-[A-E-C-e][A-E-C-c][AECe] [AEC]-[A-E-C-e][A-E-C-c][AECe] |
%[V:Guitar][F-A-C-][F-A-C-c][F-A-C-a][FACc] [F-A-C-][F-A-C-c][F-A-C-a][FACc] |
%[V:Guitar][M:2/4] [Ace]ece |
%[V:Guitar][M:4/4][E-A-C-][E-A-C-e][E-A-C-c][EACe] [E-A-C-][E-A-C-e][E-A-C-c][EACe] |
%[V:Guitar][Ff]c bc  ac gc |]
[V:Strings][M:4/4] [|Z | !p![DA,]8 | [G,D]8 | !p![CG]8 | [A,E]8 | 
[V:Strings] [FC]3 [EB]5 | E2 A6 | F3 E5 |[M:2/4]!mf! E2 A2 |[M:4/4] F7 G | 
[V:Strings] A4 GF2E | E8 | C8 |[M:2/4] A4 |[M:4/4] E8 | F8 |]
[V:Timpani][M:4/4][| Z | !ff!F4 z4 | 
[V:Timpani] Z |
[V:Timpani] C8 | 
[V:Timpani] Z |
[V:Timpani] F2 F E//E//E//E// E//E//E//E// E//E//E//E// E//E//E//E// E//E//E//E//  |
[V:Timpani] Z |
[V:Timpani] [V:Timpani] F2 F E//E//E//E// E//E//E//E// E//E//E//E// E//E//E//E// E//E//E//E//  |
[V:Timpani] [M:2/4]Z |
[V:Timpani] [M:4/4]F2 z6 |
[V:Timpani] A4 z4 |
[V:Timpani] E4 z4 |
[V:Timpani] C4 z4 |
[V:Timpani] [M:2/4]Z |
[V:Timpani] [M:4/4]E4 z3 E |
[V:Timpani] F4 z4 |]
w:        In rest-less dreams I walked a-|lone     |     narrow streets of cobble  | stone   |  beneath the ha-lo    of a   |
w:         street lamp     | I turned my collar to the     | cold and damp  |           When my  |$
w:    |        eyes  were stabbed by the|flash of  a  ne-on  light   | that  split the | night          |       and touched the| sound of    | silence             |] $
T:The Sound of Silence P3
[V:M]                [|!p! Af                  {g}f{g}f {g}A{d}A {g}B{e}A | {gBd}B8-                                                       | B{g}e                {A}e{G}e {g}G{d}G {g}B{d}B | {gAd}A8-                                  | A2                        {g}A{d}A {g}c{d}c {g}e{G}e | $ 
[V:H]                [| !p!Af                  {g}f{g}f {g}A{d}A {g}B{e}A | {g}a3/2{g}a3/2{f}g3/2{f}g3/2{f}g2                              | {g}e2{ag}a2{f}g2     e2                         | {ag}a3/2{f}g3/2f-fe       {g}f/g/a        | {g}a2{g}ce{gfg}f2{ag}a2                            | $
[V:C]                [| !p!Af                  {g}f{g}f {g}A{d}A {g}B{e}A | {g}e3/2{A}e3/2{g}e3/2{A}e3/2{g}e2                              | {g}G2{d}A2{g}B2{e}G2                            | {g}f3/2{g}e3/2{g}c-cB     {g}c/e/f        | {gfg}f2fG{g}A2{g}c2                                 | $
[V:M]                 {g}f2{g}fe-e4-                      | e2              {g}A{d}A {g}c{d}c {g}e{G}e |  {g}f2{g}fe-e2           {g}A{d}A            |  [M:2/4]ce- ef   | [M:4/4]{gfg}f4-f2e2                            |$
[V:H]                 {g}d2{c}d{gcd}c-c4                  | {g}AG           {g}fe {g}A2 {d}c2          |  {gdc}d2{g}dc-c2{g}A{d}A                     | [M:2/4]ce- ed-  | [M:4/4]d4-          d2 c2                      | $
[V:C]                 {g}a2{g}A{d}A-A4                    | {ag}ag          {fg}fe {gfg}f2{ag}a2       |  {gBd}B2{g}B{e}A-        a2{g}A{d}A          | [M:2/4]{g}A4  | [M:4/4]A4-          a2 A2                      |$
[V:M]  ff-                               f2 ed- dc-              | c4-                  cA fe-                     | ec-cB/A/-A4-                              | [M:2/4]{g}A{d}A           {g}A{d}A                   | [M:4/4]            {gef}e4 e2- eG   | Af-                       f6-             | f3d                       {g}d{e}d- {g}d{e}d/d/      | {g}}e8-                                 | ec              dB- B4                     |] $
[V:H] {g}d{e}d3                         {g}A{d}A- {g}A{d}A-     | {g}A8                                           | {gef}e4f2c2                               | [M:2/4]                   {gcd}c4                    | [M:4/4]            {gde}d4- {gef}e4 | Af-                       f6-             | f3d                       {g}d{e}d- {g}d{e}d/d/      | {g}A8-                              | Ac              dB- B4                     |] $
[V:C]  {g}A{d}A3                         gf- fe-                 | e8                                              | A3B                       c2 e2-          | [M:2/4]                   {gef}e4                    | [M:4/4]            B4- B4-          | B3c                       d2 c2           | B8                                                   | {g}c8-                                 | ec              dB- B4                     |] $
[V:P]!f![F,,FC]C,A,C  F,CAC |
[V:P] [B,]Fdf [Ge3g3b4]B,E,B, | 
[V:P] E,[B,Be][EAe][B,Be] [Geg] [B,eg] [Eegb] [B,egb] |
[V:P] [F,F][C,c3-f3-a3-]fc [A,c4f4a4]CDC | 
[V:P] F,[Cfa] [Ffa][Cfa] [Aac][Cac] [Face][Cace] |
[V:P] D,A,D [A,EA]-  [A,EA]3- [A,EAA,,]| A,,4  [A,,-A,CE][A,CE][A,CE][A,CE] |D,A,D [A,EA]-  [A,EA]3- [A,EAA,,] |
[V:P][M:2/4] [A,,ac][A,,e]3  |
[V:P][M:4/4]D,A,DA,  FA,DA, | D,A,DA,  FA,DA, | A,EAE  CEAE | F,CFG  A3A, | A,4 | EBef  g3g' | 
[V:P]
%[V:BG]!ppp!F,CA,C F,CA,C |
%[V:BG] B,,F,D,F, B,,F,D,F, | 
%[V:BG] E,[B,][E][B,] [G] [B,] [E] [B,] |
%[V:BG] [F,][C,]fc [A,]CDC | 
%[V:BG] F,[C] [F][C] [A][C] [F][C] |
%[V:BG] [B,][A,][D][A,]- [A,]3- [A,,] |
%[V:BG] [A,,]2 [A,,]2 [A,][E] [A][E] |
%[V:BG] [B,][A,][D][A] [A]2 [A]F,, |
%[V:BG][M:2/4] [A,,][A,,]3  |
%[V:BG][M:4/4]D,A,DA,  FA,DA, | D,A,DA,  FA,DA, | A,EAE  CEAE | F,CFG  A3A, | A,4 | EBef  g3g' | 
%[V:BG]
%[V:Guitar Clef=treble][|!ppp! [F,CA]4 [F,CA]4 |
%[V:Guitar][Bfb]4 [Bfb]4 |
%[V:Guitar][EBe]4 [EBe]4 |
%[V:Guitar][Ace]4 [Gce]4 |
%[V:Guitar][CFA]4 [CFA]4 |
%[V:Guitar]D,A,D [A,EA]-  [A,EA]3- [A,EAA,,]| A,,4  [A,,-A,CE][A,CE][A,CE][A,CE] |D,A,D [A,EA]-  [A,EA]3- [A,EAA,,] | [M:2/4]A,,4 |
%[V:Guitar][M:4/4][DFA]4 [DFA]4 |
%[V:Guitar][DFA]4 [DFA]4 |
%[V:Guitar][AEC]4 [AEC]4 |
%[V:Guitar][FAC]4 [FAC]4 |
%[V:Guitar][M:2/4] [ACE]4 |
%[V:Guitar][M:4/4][EAC]4 [EAC]4 |
%[V:Guitar][Ff]c bc  ac gc |]
[V:Strings] [|Z | !mf!D8 | G8 | C8 | A8 | 
[V:Strings] F3 E5 | E2 A6 | F3 E5 |[M:2/4]!mf! E2 A2 |[M:4/4] F7 G | 
[V:Strings] A4 GF2E | E8 | C8 |[M:2/4] A4 |[M:4/4] E8 | F8 | 
[V:Timpani] Z | !ff!F4 z4 | 
[V:Timpani] Z |
[V:Timpani] C8 | 
[V:Timpani] Z |
[V:Timpani] F2 F E//E//E//E// E//E//E//E// E//E//E//E// E//E//E//E// E//E//E//E//  |
[V:Timpani] Z |
[V:Timpani] F2 F E//E//E//E// E//E//E//E// E//E//E//E// E//E//E//E// E//E//E//E//  |
[V:Timpani] [M:2/4]Z |
[V:Timpani] [M:4/4]F2 z6 |
[V:Timpani] A2 z6 |
[V:Timpani] E2 z6 |
[V:Timpani] C2 z6 |
[V:Timpani] [M:2/4]Z |
[V:Timpani] [M:4/4]E2 z5 E |
[V:Timpani] F2 z6 |]


